!!!LAR: Susato, Tielman
!!!OPR: Het Derde Mussyck Boexken, Vol 3
!!!OTL: Reihent&auml;nze Branlen
!!!OMV: 3. Hoboecktanz
!!!PPR: Tielman Susato
!!!PPP@EN: Belgium; Antwerp
!!!PDT: 1551
**kern	**kern	**kern	**kern
*>[A,A]	*>[A,A]	*>[A,A]	*>[A,A]
*>A	*>A	*>A	*>A
*Ifltdb	*Ifltdt	*Ifltda	*Ifltds
*clefF4	*clefGv2	*clefGv2	*clefG2
*k[]	*k[]	*k[]	*k[]
*M6/4	*M6/4	*M6/4	*M6/4
*MM152	*MM152	*MM152	*MM152
4D\	4F/	4A/	4d/
=1	=1	=1	=1
2D\	4.F/	2A/	2d/
.	8D/	.	.
4D\	4d\	4f\	4a/
2F\	2c\	4.f\	2a/
.	.	8e\	.
4G\	4B\	4d\	4dd\
=2	=2	=2	=2
4A\	2A/	2f\	4cc\
4D\	.	.	4dd\
4E\	4G/	4g\	4b\
2F\	2c\	2f\	2a/
4D\	4d\	4f\	4a/
=3	=3	=3	=3
4E\	4B\	4e\	4g/
4F\	4.A/	4c\	4a/
4D\	.	4d\	4f/
.	8B\	.	.
2C/	2c\	2G/	2e/
4D\	4F/	4d\	4d/
=4	=4	=4	=4
2D\	4.F/	4.A/	2d/
.	8D/	8F/	.
4D\	4d\	4f\	4a/
2F\	2c\	2f\	2a/
4G\	4B\	4d\	4dd\
=5	=5	=5	=5
4A\	2A/	2f\	4cc\
4D\	.	.	4dd\
4E\	4G/	4g\	4b\
4.F\	4.c\	4f\	2a/
.	.	4f\	.
8D\	8d\	.	.
4E\	4B\	4e\	4g/
=6	=6	=6	=6
4F\	4A/	4c\	4f/
4E\	4G/	4e\	4g/
4AA/	4A/	4c\	4e/
2D\	2F/	2A/	2d/
4GG/	4G/	4B\	4d/
=7	=7	=7	=7
4D\	4F/	4.A/	4d/
4D\	4F/	.	4d/
.	.	8B\	.
4C/	4E/	4c\	4e/
4.F\	4.D/	4.d\	2f/
8E\	8E/	8c\	.
4D\	8F/L	8A/L	4f/
.	8G/J	8B/J	.
=8	=8	=8	=8
4C/	4.A/	4c\	4e/
4D\	.	4A/	4f/
.	8F/	.	.
4BB/	4G/	4B\	4d/
2AA/	2A/	4c\	2c/
.	.	4F/	.
4GG/	4B\	4G/	4g/
=9	=9	=9	=9
4D\	4A/	4A/	4f/
4GG/	4G/	4B\	4d/
4D\	4F/	4A/	4f/
2C/	4.G/	2c\	2e/
.	8E/	.	.
4D\	4F/	4A/	4d/
=10	=10	=10	=10
4GG/	4.G/	4B\	4d/
4GG/	.	4B\	4d/
.	8F/	.	.
4C/	4E/	4c\	4e/
4D\	4D/	4A/	4f/
4D\	4F/	4A/	4d/
4C/	4G/	4c\	4g/
=11	=11	=11	=11
4F\	4.A/	2c\	4f/
4C/	.	.	4e/
.	8G/	.	.
4D\	4F/	4A/	4d/
2AA/	2E/	2A/	2c/
4D\	4F/	4A/	4d/
=12	=12	=12	=12
4GG/	4G/	4B-\	2d/
2AA/	2E/	2A/	.
.	.	.	4c#/
2D\	2D/	2A/	2d/
==:|!	==:|!	==:|!	==:|!
*-	*-	*-	*-
!!!ENC: Craig Stuart Sapp
!!!END: 2004/03/19/
